X: 29828
T: O'Connor's
R: slide
M: 12/8
K: Gmajor
"G"D2 E G2 A|BAB dBA|B2 d "D"ABA|"Em"G2 B AGE|
"G"D2 E G2 A|B3 dBA|B2 d "D"ABA|1 "G"G3 G2 E:|2 "G"G3 G2 g||
|:"D"f2 d e2 d|"C"gfg e2 d|"G"B2 d "D"A2 B|"Em"G2 B AGE|
"G"D2 E G2 A|BAB dBA|B2 d "D"ABA|1 "G"G3 G2 g:|2 "G"G3- G3||

